X: 1
T: Over the Hills
M: 6/8
L: 1/8
R: jig
K: Ador
efe ABA|ede g2e|ded G2G|BGB d2g|
efe ABA|ede g2b|age dBG|A3 A3:|
a3 a3|agb age|g3 g3|gef gfe|
a3 a3|agb age|gfg dBG|1. ABA efg:|2. ABA g2f||
